X:1
T:Title
%%score ( 1 2 ) ( 3 4 )
L:1/8
Q:1/4=100
M:6/8
K:Ab
V:1 treble nm="Grand Piano, Soprano"
V:2 treble 
V:3 bass nm="Choir Pad, Yes, Dear Lord"
V:4 bass 
V:1
 [CA]2 [CA] [CA][DB][Ec] | [FB]2 [DF] [DF]2 [DA] | [CE]2 [CA] AG[=DA] | [EB]3 e2 d | %4
w: By~Lelia~Naylor~Morris * * * *||||
 [Ac]2 [Ac] c_c[A=c] | [FB]2 [DF] [DF]2 [DA] | [CE]2 [CA] [Ec]2 [CA] | [DB]3 [CA]3 | %8
w: ||||
 [Ec]2 [CA] [CA]3 | [DB]2 [DF] [DF]3 | [DG]2 [EA] [EB]2 [EG] | A2 [AB] c2 d | [Ee]2 [Ec] [CA]3 | %13
w: |||||
 [FB]2 [Fc] [Fd]2 [Fd] | [Ec]2 [CA] [Ec]2 [DB] | [CA]6- | [CA]3 z3 |] %17
w: ||||
V:2
 x6 | x6 | z3 .=D3 | z3 E3 | z3 .A3 | x6 | x6 | x6 | x6 | x6 | x6 | z3 A3 | x6 | x6 | x6 | x6 | %16
 x6 |] %17
V:3
 [A,,E,]2 [A,,E,] [A,,A,]2 [A,,A,] | [D,A,]2 [D,A,] [D,A,]2 [F,A,] | A,2 A, [B,,B,]2 [B,,F,] | %3
 z3 .B,3 | [A,E]2 [A,E] E=D[A,E] | [D,D]2 [D,A,] [D,A,]2 [F,A,] | A,2 [F,A,] [E,A,]2 [E,A,] | %7
 [E,G,]3 [A,,E,]3 | [A,,A,]2 [A,,E,] [A,,E,]3 | [D,F,]2 [D,A,] [D,A,]3 | %10
 [E,B,]2 [E,C] [E,D]2 [E,B,] | [A,C]2 [A,D] [A,E]3 | [A,C]2 A, A,3 | %13
 [D,A,]2 [C,=A,] [B,,B,]2 [B,,B,] | [E,A,]2 [E,A,] [E,G,]2 [E,G,] | [A,,E,]6- | [A,,E,]3 z3 |] %17
V:4
 x6 | x6 | x6 | [E,G,]3 E,2- [E,E] | z3 .A,3 | x6 | x6 | x6 | x6 | x6 | x6 | x6 | x6 | x6 | x6 | %15
 x6 | x6 |] %17

